X: 13
T: Odd Thoughts
N: aka All Alive  (Walsh 1740)
%R: jig
B: "Twenty Four Favourite Dances for the Year 1783", Thomas Straight, ed. p.7 #1
F: http://www.vwml.org/browse/browse-collections-dance-tune-books/browse-straights1783
Z: 2014 John Chambers <jc:trillian.mit.edu>
M: 6/8
L: 1/8
K: Dm
A |\
d2e fed | fa2- a2A | def efd | ^c3 A2d |\
cBA BAG | AcF B2A | GEF E2D | D3- D2 :|\
|: F | E2F GAF |
Ac2 B2A |\
fed gef | ^c3 A2a | bag a2A | BAG A2f |\
gfe e2d | d3- d2A | GE2- E2D | D3- D2 :|
% - - - - - - - - - - Dance description: - - - - - - - - - -
%%begintext align
%% Change sides & back again .|. lead down the
%% middle up again & cast off :|. allemand with
%% the right & left hand .|: hands 6 quite round
%%endtext

%%sep 1 1 500
%%sep 1 1 500
